X:69
T:Elizabeth Canning
M:6/8
L:1/8
B:Thompson's Compleat Collection of 200 Favourite Country Dances, vol. 2 (London, 1765)
Z:Transcribed and edited by Flynn Titford-Mock, 2007
Z:abc's:AK/Fiddler's Companion
K:A
c/d/ | ecA aed | c2 (A A)ae | f2(d d)af | g2(e e)fg | a3 ecA | fdB G2E | Fag fed | c2A A2 :|
|: c/d/ | eca eca | c2(A A)Bc | dBf dBf | G2(E E)A=G | F2(D D)AF | [E2e2] [Cc]-[Cc]fg | aec Bed | {d}c2A A2 :|

